modules/feathericon/icons/mobile.svg

<svg width="8" height="14" xmlns="http://www.w3.org/2000/svg"><path d="M8 13c0 1-1 1-1 1H1s-1 0-1-1V1c0-1 1-1 1-1h6s1 0 1 1v12zm-7-1h6V2H1v10z" fill="#000" fill-rule="evenodd"/></svg>

<?xml version="1.0" encoding="UTF-8"?>
<svg width="8px" height="14px" viewBox="0 0 8 14" version="1.1" xmlns="http://www.w3.org/2000/svg" xmlns:xlink="http://www.w3.org/1999/xlink">
    <!-- Generator: sketchtool 48.1 (47250) - http://www.bohemiancoding.com/sketch -->
    <title>mobile</title>
    <desc>Created with sketchtool.</desc>
    <defs></defs>
    <g id="devices" stroke="none" stroke-width="1" fill="none" fill-rule="evenodd">
        <g id="mobile" fill="#000000">
            <path d="M8,13 C8,14 7,14 7,14 L1,14 C1,14 0,14 0,13 C0,13.063 0,0.938 0,1 C0,0 1,0 1,0 L7,0 C7,0 8,0 8,1 L8,13 Z M1,12 L7,12 L7,2 L1,2 L1,12 Z" id="Shape"></path>
        </g>
    </g>
</svg>
